!!!!SEGMENT: 008-1c-KI-004-violino.krn
!!!COM: F. Chopin
!!!OPS: Op. 8
!!!OTL: Trio
!!!OMV: 4
!!!PTL: Premier | TRIO | pour | Pianoforte, Violon et Violoncelle
!!!PPR: Kistner
!!!PPP: Leipzig
!!!AGN: Trio
!!!NIFC-rismID: 1001002848
!!!NIFC-shelfmark: PL-Wbfc 3997/n
!!!OMD: ALLEGRETTO.
**kern	**dynam
*part1	*part1
*I"FINALE.	*
*staff1	*
*clefG2	*
*k[b-e-]	*
*g:	*
*M2/4	*
8r	.
=1	=1
!LO:TX:t=P:problem: liczby: "7", "1" i "8" pod pięciolinią	!
2ree	.
=2	=2
2ree	.
=3	=3
2ree	.
=4	=4
2ree	.
=5	=5
2ree	.
=6	=6
2rdd	.
=7	=7
2rdd	.
=8	=8
!LO:TX:B:a:i:t=ritard.	!
2rdd	.
!LO:TX:B:b:t=1	!
.	.
=9	=9
!LO:TX:B:a:i:t=a Tempo.	!
2rdd	.
=10	=10
2rdd	.
=11	=11
2rdd	.
=12	=12
2rdd	.
=13	=13
2rdd	.
=14	=14
2rdd	.
=15	=15
2rdd	.
=16	=16
2rdd	.
=17	=17
!	!LO:DY:rj
[<2a	p
=18	=18
2a_<	.
=19	=19
2a_<	.
=20	=20
2a]	.
=21	=21
*^	*
2a	4rc	.
.	(>\4g	.
=22	=22	=22
2a)	2f#X	.
=23	=23	=23
(>2a/	(<2g	.
*v	*v	*
=24	=24
8f#X))	.
8r	.
4r	.
=25	=25
2rdd	.
=26	=26
2rdd	.
=27	=27
2rdd	.
=28	=28
2rdd	.
=29	=29
2rdd	.
=30	=30
2rdd	.
=31	=31
2rdd	.
=32	=32
2rdd	.
=33	=33
2rdd	.
=34	=34
2rdd	.
=35	=35
!LO:TX:a:B:i:t=con fuoco.	!
4r	.
!	!LO:DY:rj
8d\L	f
.	<
(>16ddL	.
16ccJJ	[[
!!LO:LB:g=original
=36	=36
8b-\L	>
8gJ)	]
8r	.
!	!LO:DY:rj
(<8a	p
=37	=37
8g)	.
8r	.
(>\8dL	<
16ddL	.
16ccJJ	[[
=38	=38
8b-L	.
16aL	>
16gJJ	]
16fLL	.
16g	.
16en	.
16aJJ)	.
=39	=39
8fL	.
8dJ	.
8r	.
(>8cc#X	.
=40	=40
8dd)	.
8r	.
8aL	.
(>16aaL	.
16ggJJ	.
=41	=41
8ffL	.
8ddJ)	.
8r	.
[>8dd	.
=42	=42
(>8ddL]	.
8ddJ	.
8ee-^<L	.
16ddL	.
(>16ccJJ)	.
=43	=43
8b-L	.
8gJ)	.
4r	.
=44	=44
8r	.
[8g^<	.
(>8gL]	.
16ggL	.
16ffJJ	.
!!LO:LB:g=original
=45	=45
8ee-L	.
8ccJ)	.
4r	.
=46	=46
8r	.
[>8cc	.
8ccL]	.
16cccL	.
16bb-JJ	.
=47	=47
8aa-XL	.
(>8ccJ	.
8fL)	.
(>16ffL	.
16ee-JJ	.
=48	=48
8dd-XL	.
8ddnJ	.
8ee-LL)	.
(>16gg	.
16ffJJ	.
=49	=49
8ee-L	.
8ccJ	.
8b-)	.
8r	.
=50	=50
8r	.
[<8a	.
8aL]	.
(>16aaL	.
16ggJJ	.
=51	=51
8ff`>L)	.
(>8eenJ	.
[<4a)	.
=52	=52
8a]	.
!	!LO:DY:rj
8dL	f
8c	.
8B-J	.
=53	=53
8A	.
8r	.
8dL	.
(>\16ddL	.
16ccJJ	.
=54	=54
8b-\L	.
8gJ	.
8fL)	.
(>16ffL	<
16eenJJ	.
!!LO:LB:g=original
=55	=55
8ddL	.
8bn	.
8a	.
8ccJ)	.
=56	=56
8b-XL/	.
[<8gJ	>
16gLL]	]
16f#X	.
(<16g	.
16dJJ	.
=57	=57
16c#X)	.
16r	.
8r	.
4r	.
=58	=58
2rdd	.
=59	=59
2rdd	.
=60	=60
2rdd	.
=61	=61
2rdd	.
=62	=62
2rdd	.
=63	=63
2rdd	.
=64	=64
2rdd	.
=65	=65
2rdd	.
=66	=66
2rdd	.
=67	=67
2rdd	.
=68	=68
2rdd	.
=69	=69
2rdd	.
=70	=70
2rdd	.
=71	=71
2rdd	.
=72	=72
2rdd	.
=73	=73
2rdd	.
=74	=74
2rdd	.
=75	=75
2rdd	.
=76	=76
4r	.
8r	.
!LO:TX:B:a:i:t=espress.	!
(<8A	.
=77	=77
4a	.
4d	.
=78	=78
8gL)	.
8gJ	.
4en	.
=79	=79
(<4a	.
4d	.
=80	=80
8gL)	.
8gJ	.
16qqg/LL	.
16qqf/JJ	.
4en	.
=81	=81
4a	.
4d	.
=82	=82
8gL	.
8gJ	.
4c	.
=83	=83
4f	.
(<4B-	.
!!LO:LB:g=original
=84	=84
8dL	.
!	!LO:HP:a
.	<
16c#XL	.
16dJJ	.
4en)	[
=85	=85
(<4a	.
4d	.
=86	=86
4c#X)	.
8r	.
!	!LO:DY:rj
8b-	p
=87	=87
(<4a	.
4d	.
=88	=88
4c#X)	.
8r	.
(<8b-	.
=89	=89
4a	.
8b-^>L	.
16aL	.
16gJJ)	.
=90	=90
(<4f^<	.
4d))	p
=91	=91
2rdd	.
=92	=92
2rdd	.
=93	=93
!LO:TX:B:a:i:t=poco a poco cres-cen-do.	!
(<4f	.
4d	.
=94	=94
8f#XL	.
8f#J	.
4d#X	.
=95	=95
4g#X	.
4en	.
=96	=96
8bnL	.
8bJ	.
!	!LO:DY:a
4en)	pp
=97	=97
!LO:TX:t=P:problem:brak zakończenia łuku	!
!	!LO:DY:rj
(>4een	p
4a	.
!!LO:PB:g=original
=98	=98
8ddL`>)	.
(>8ddJ	.
4bn)	.
=99	=99
[>2een	.
=100	=100
2eenX]	.
=101	=101
(>4ff	.
4b-X	.
=102	=102
8ee-`>L)	.
(>8ee-J	.
4cc)	.
=103	=103
(>4dd^<	.
8ccL	.
8b-J	.
=104	=104
4.cc)	.
(>8dd	.
=105	=105
8b-)	.
8r	.
4r	.
=106	=106
2rdd	.
=107	=107
2rdd	.
=108	=108
2rdd	.
=109	=109
2rdd	.
=110	=110
2rdd	.
=111	=111
2rdd	.
=112	=112
2rdd	.
=113	=113
2rdd	.
=114	=114
2rdd	.
=115	=115
2rdd	.
=116	=116
!LO:TX:B:a:i:t=rallent.	!
2rdd	.
!LO:TX:B:b:t=1	!
.	.
=117	=117
!LO:TX:B:a:i:t=Tempo 1|o.	!
2rdd	.
=118	=118
2rdd	.
=119	=119
2rdd	.
=120	=120
2rdd	.
=121	=121
2rdd	.
=122	=122
*^	*
*cue	*	*
!LO:TX:B:t=Pfte.	!	!
8ggg\L	2rg	.
8bb-J	.	.
4ddd\	.	.
=123	=123	=123
!LO:TX:B:i:t=ritenuto.	!	!
8ddd\L	2rg	.
8bb-J	.	.
4ddd\	.	.
*Xcue	*	*
*v	*v	*
=124	=124
8r	.
8b-	.
[>4dd^<	.
=125	=125
!LO:TX:B:a:i:t=Tempo 1|o.	!
4dd]	.
(>16cc#XLL	.
16dd	.
16een	.
16ff#XJJ	.
!!LO:LB:g=original
=126	=126
8ggL)	.
8b-`>J	.
4dd^>	.
=127	=127
4a	.
(<16g#XLL	.
16a	.
16b-	.
16aJJ	.
=128	=128
8gnyL)	.
8b-`<J	.
(>4d^<	.
=129	=129
4dd)	.
(>16cc#XLL	<
16dd	.
16een	.
16ff#XJJ	[
=130	=130
8gg`>L)	.
8b-J	.
[>4dd	.
=131	=131
8ddL]	.
(>8ccny	.
8g	.
8aJ	.
=132	=132
4f#X/)	.
8dL	.
(<8AJ	.
=133	=133
4a	.
16g#XLL	.
16a	.
16bn	.
16cc#XJJ	.
=134	=134
8ddL)	.
8f#X`<J	.
4a^<	.
=135	=135
(<4en	.
16d#XLL	.
16e	.
16f#X	.
16eJJ)	.
=136	=136
8dn`<L	.
8f#X`<J	.
4A	.
!!LO:LB:g=original
=137	=137
*^	*
!	!	!LO:DY:a
[>2a	4rc	p
.	(<4g	.
=138	=138	=138
2a])	2f#X	.
=139	=139	=139
(>2a/	(<2g	.
*v	*v	*
=140	=140
8f#X))	.
8r	.
4r	.
=141	=141
2rdd	.
=142	=142
2rdd	.
=143	=143
2rdd	.
=144	=144
2rdd	.
=145	=145
2rdd	.
=146	=146
2rdd	.
=147	=147
2rdd	.
=148	=148
2rdd	.
=149	=149
2rdd	.
=150	=150
2rdd	.
=151	=151
4r	.
!	!LO:DY:rj
8d\`>L	f
!LO:TX:a:i:B:t=con fuoco.	!
(>16ddL	.
16ccJJ	.
=152	=152
8b-\L	.
8gJ)	.
8r	.
(<8a	.
=153	=153
8g)	.
8r	.
8d\`>L	.
(>16ddL	.
16ccJJ	.
=154	=154
8b-L	.
16aL	.
16gJJ	.
16fLL	.
16g	.
16e-	.
16fJJ	.
=155	=155
8dL)	.
8B-J	.
8r	.
8a	.
=156	=156
8b-	.
8r	.
\8fL	.
(>16ffL	.
16ee-JJ	.
=157	=157
8ddL	.
8b-J)	.
8r	.
(>8a	.
!!LO:LB:g=original
=158	=158
8b-)	.
4dd	.
(>8een	.
=159	=159
8ff)	.
8r	.
8r	.
[</8c	.
=160	=160
8c^<L]	.
(<16ccL	.
16b-JJ	.
8aL)	.
[<8en^<J	.
=161	=161
8enXL]	.
(>16eenL	.
16ddJJ	.
8cc\L)	.
[>8gJ	.
=162	=162
16gLL]	.
16cc	.
(>16ee-X	.
.	<
16ffJJ	.
16ggLL	.
16ff#X	.
16gg	.
16aaJJ	[
=163	=163
8bb-X)	.
8r	.
8r	.
8f^<	.
=164	=164
8fL	.
(>16ffL	.
16ee-JJ	.
8ddL)	.
[>8aJ	.
=165	=165
8aL]	.
(>16aaL	.
16ggJJ	.
8ffL)	.
[8ccJ	.
=166	=166
16ccLL]	.
(>16een	.
16ff	.
16ggJJ	.
16aa-XLL	.
16gg	.
16aa-	.
16bb-JJ	.
!!LO:LB:g=original
=167	=167
8ccc)	.
8r	.
(<16f#XLL	<
16g	.
16cc	.
16b-JJ	.
=168	=168
*^	*
4any)	8rc	[
.	8c	.
4b-	4d	.
*v	*v	*
=169	=169
(<4d-X	<
16enLL	.
16f	.
16b-	.
16a-XJJ)	[[
=170	=170
*^	*
4g	8rc	.
.	8B-	.
[<4a-X	4c	.
*v	*v	*
=171	=171
4a-X]	.
.	<
(<16g/LL	.
16a-	.
16cc	.
16dd-XJJ)	[[
=172	=172
8ee-`>L	[
8a-X`>J	.
4ff^<	.
=173	=173
4b-	.
.	<
(>16anLL	.
16b-	.
16ddny	.
16ee-JJ	[[
=174	=174
8ffL)	.
8b-J	.
8ggL	>
16ffL	.
16ee-JJ	]
=175	=175
8aa-	.
8r	.
(<16enLL	<
16f	.
16g	.
16a-XJJ)	[[
!!LO:LB:g=original
=176	=176
(>\8b-L	.
8gJ))	.
4cc^>	.
=177	=177
8a-X/	.
8r	.
(<16cLL	<
16d-X	.
16e-	.
16fJJ	[[
=178	=178
8gL)	.
8e-`<J	.
4a-X^<	.
=179	=179
8f	.
4b-^</	.
8a-X	.
=180	=180
(<4a-X	>
8gL	.
8fJ)	]
=181	=181
!	!LO:HP:a
4.en	>
(<8f	<
=182	=182
8gL)	[
8B-J	.
[<4g^<	.
=183	=183
4g]	.
.	<
(<16enLL	.
16f	.
16g	.
16a-XJJ	[[
=184	=184
8gL)	[
8c`<J	.
8gL	.
8fJ	.
=185	=185
4en	.
(<16eLL	<
16f	.
16g	.
16a-XJJ)	[[
!!LO:LB:g=original
=186	=186
2g	<[
.	.
=187	=187
[<4f#X	.
16f#LL]	<
16g	.
16a	.
16b-JJ	[[
=188	=188
4.a^<	.
8g 8c#X	.
=189	=189
4f#X 4d	.
(<16enLL	<
16fn	[
16g	>
16fJJ	]
=190	=190
4f)	>
(<4e-X	]
=191	=191
8d-X)	.
8r	.
[<4a-^<X	.
=192	=192
4a-X]	.
(>\16gLL	<
16a-	.
16b-	.
16ccJJ)	[[
=193	=193
8dd-X\`>L	.
8f`>J	.
4a-^>X/	.
=194	=194
4a-X	.
[<4an^<	.
=195	=195
8aL]	.
8c#XJ	.
[<4en^<	.
=196	=196
4enX]	.
!	!LO:DY:rj
4c#X	p
!!LO:LB:g=original
=197	=197
[<2en^	.
=198	=198
4enX]	.
(<4c#X	.
=199	=199
8B#X)	.
8r	.
[<4e-X	.
=200	=200
4e-^>]	.
(<4c	.
=201	=201
4e-^>	.
4c	.
=202	=202
8e-L)	.
8e-`J	.
(<4c	.
=203	=203
8Bn)	.
8r	.
4r	.
=204	=204
2rdd	.
=205	=205
2rdd	.
=206	=206
4r	.
!	!LO:DY:rj
8d\`>^<L	p
(>16ddL	.
16ccJJ	.
=207	=207
8bn\L	.
8gJ)	.
4r	.
=208	=208
2rdd	.
=209	=209
2rdd	.
=210	=210
2rdd	.
=211	=211
!	!LO:DY:rj
4d	f
4G	.
=212	=212
8fL	.
8fJ	.
4Bn	.
!!LO:LB:g=original
=213	=213
4a-X^>	.
4Bn	.
=214	=214
!LO:TX:a:B:i:t=calando.	!
4g^<	.
4Bn	.
=215	=215
!LO:TX:a:B:i:t=a Tempo.	!
4g^<	.
(<4c	.
=216	=216
8fL)	.
8f`<J	.
4d	.
=217	=217
4g	.
(<4c	.
=218	=218
8fL)	.
8f`<J	.
4d	.
=219	=219
(>4g	<
4an	[[
=220	=220
8cc\L	.
8b-	.
8a-X	>
8gJ	.
=221	=221
4b-	]
8fL	.
8b-J	.
=222	=222
4g	.
4e-)	.
=223	=223
4a-X^<	.
(<4e-	.
=224	=224
8gL)	.
8g`<J	.
(<4e-	.
=225	=225
4a-X^<	.
4e-	.
!!LO:LB:g=original
=226	=226
8gL)	.
8g`<J	.
(<4e-	.
=227	=227
4f	>
4e-	]
=228	=228
4.d)	.
(<8g	.
=229	=229
8fL	.
8e-	.
8d	.
8cJ	.
=230	=230
4.d)	.
8g	.
=231	=231
4g^<	.
(<4c	.
=232	=232
8fL)	.
8f`<J	.
4d	.
=233	=233
(<4g	.
4c	.
=234	=234
8fL)	.
8f`<J	.
4d	.
=235	=235
!LO:TX:i:a:B:t=stretto.	!
4g^<	.
(<4c	.
=236	=236
!LO:TX:a:t=P:problem:cres. nad nutami	!LO:HP:a
8a-XL	<
8a-J	.
4f	.
=237	=237
4b-/	.
4g	.
=238	=238
8ccL	.
8ccJ	.
4a-X	.
=239	=239
4g)	.
!	!LO:DY:rj
(<4d	p
!!LO:LB:g=original
=240	=240
8gL	.
8g`<J	.
4en)	.
=241	=241
(<4f	.
4c)	.
=242	=242
(<4f	.
16gLL	.
16a-X	.
16b-	.
16a-JJ)	.
=243	=243
(>4ee-^<	.
4b-)	.
=244	=244
8ee-L	.
8ee-`>J	.
(>4cc	.
=245	=245
4ee-^>	.
4b-	.
=246	=246
8ee-L)	.
8ee-`>J	.
(>4cc	.
=247	=247
4dd^<	.
4a	.
=248	=248
8ddL)	.
8dd`>J	.
4b-	.
=249	=249
(>4dd^<	.
4a	.
=250	=250
8ddL)	.
8dd`>J	.
4b-	.
=251	=251
[<2g^<	.
=252	=252
4g]	.
4f	.
=253	=253
[<2f^<	.
!!LO:LB:g=original
=254	=254
4f]	.
4e-	.
=255	=255
[2e-^<	.
=256	=256
4e-^<]	.
4d	p
=257	=257
2rdd	.
=258	=258
2rdd	.
=259	=259
2rdd	.
=260	=260
2rdd	.
=261	=261
2rdd	.
=262	=262
2rdd	.
=263	=263
*	*^
!LO:TX:a:t=P:problem:crescendo nad nutami	!LO:HP:a	!
4b-/	<	ff
4g	.	.
*	*v	*v
=264	=264
8b-L	.
8b-J	.
4g	.
=265	=265
4b-	.
4g	.
=266	=266
8b-L	.
8b-J	.
4g	.
=267	=267
!	!LO:DY:rj
[>2b-^<	f
=268	=268
[>2b-]	.
=269	=269
8b-]	.
8r	.
4r	.
=270	=270
.	.
!LO:TX:a:B:t=1	!
2rdd	.
=271	=271
4dd	.
(>16cc#XLL	.
16dd	.
16een	.
16ff#XJJ	.
=272	=272
8gg`>L)	.
(>8b-J	.
4dd)	.
=273	=273
(<4a	.
16g#XLL	.
16a	.
16b-	.
16aJJ)	.
!!LO:LB:g=original
=274	=274
8gnyL	.
8b-J	.
(>4d^<	.
=275	=275
4dd)	.
(>16cc#XLL	.
16dd	.
16een	.
16ff#XJJ	.
=276	=276
8ggL)	.
8b-J	.
4dd^<	.
=277	=277
(>4cc	.
4g)	.
=278	=278
!LO:TX:i:a:B:t=appassionato.	!
4cc	<
(>16bnLL	<
16cc	.
16.dd	.
32ee-JJk	[[
=279	=279
4ee-	>
4cc)	]
=280	=280
8ee-L	[
8ee-J	.
4f#X^<	.
=281	=281
!	!LO:DY:a
4b-: 4d: 4G:	ff
4r	.
=282	=282
2rdd	.
=283	=283
2rdd	.
=284	=284
(<4d	.
!	!LO:HP:a
.	<
16c#XLL	.
16d	.
16en	.
16f#XJJ)	[
=285	=285
8gL	.
8B-J	.
4d^<	.
=286	=286
!LO:TX:t=P:problem: łuk kończy się skierowany w dół	!
(>4cc	p
4a^<	[[
!!LO:LB:g=original
=287	=287
4g	[
8fL	.
8e-J)	.
=288	=288
4d	.
16enLL	<
16f#X	.
16g	.
16aJJ	[
=289	=289
!	!LO:DY:rj
(<4b- 4d	f
!LO:TX:i:B:t=sempre più animato.	!
4g 4B-	.
=290	=290
8b-L 8d)	.
8b-`<J 8d	.
(>4g^> 4B-	.
=291	=291
4b- 4d	.
4g 4B-	.
=292	=292
!	!LO:DY:rj
8b-L 8d)	f
8b-`<J 8d	.
4g^> 4B-	.
=293	=293
!	!LO:DY:rj
(>4b- 4d	f
4g 4B-	.
=294	=294
!	!LO:DY:rj
8b-L) 8d	ff
8b-`<J 8d	.
(<4g 4B-	.
=295	=295
8b-`< 8d)	.
8r	.
4r	.
=296	=296
.	.
!LO:TX:a:B:t=1	!
2rdd	.
=297	=297
[>2g [<2B-	.
=298	=298
!LO:TX:a:t=P:problem:cres. nad nutami	!
!	!LO:HP:a
2g_> 2B-_<	<
=299	=299
2g_> 2B-_<	.
=300	=300
2g_> 2B-_	.
=301	=301
8g] 8B-]	.
8r	.
4r	ff
=302	=302
!LO:TX:B:t=FINE.	!
4gg/ 4b-/ 4d/ 4G/	.
4r	.
=303	=303
2G/;	.
==	==
*-	*-
!!!system-decoration: s1,s2{(s3,s4)}
!!!RDF**kern: > = above
!!!RDF**kern: < = below
!!title: @{OTL}; @{OPS} @{ONM} publisher: @{PPR}
!!!RDF**kern: N = linked
!!!RDF**dynam: > = "decres.", fontstyle = "italic"
!!!RDF**dynam: < = "cres.", fontstyle = "italic"
!!!RDF**kern: i = editorial accidental
!!!ENC: Mateusz Mrugas
!!!END: 2019-10-25
!!!EED: Jędrzej Mróz
!!!EST: revision finished 2019-10-27
!!!rism-genre: Trio
!!!rism-key: G minor
!!!rism-opus: op.  8
!!!rism-title: Trio in G minor op.  8
!!!rism-permalink: https://opac.rism.info/search?id=1001002848&View=rism
